X:1
T:Salangadou
M:4/4
L:1/4
K:Ab
 z z/2 F/2 F F| A2 B2| c3/2 F/2 F F| A2G/2-F/2-G/2-A/2| F3/2 F/2 F F|\
 A2 B2| c3/2 F/2 F F| A2G/2-F/2-G/2-A/2| F2- F2| G B B B| B A c2| z z/2 F/2 F F|\
 A2 B2| c3/2 F/2 F F| A2G/2-F/2-G/2-A/2| F2 z2|

